lib/icons/smile.svg

<svg width="18" height="18" viewBox="0 0 18 18" fill="none" xmlns="http://www.w3.org/2000/svg">
<path fill-rule="evenodd" clip-rule="evenodd" d="M9.00039 0.900024C4.52688 0.900024 0.900391 4.52652 0.900391 9.00002C0.900391 13.4735 4.52688 17.1 9.00039 17.1C13.4739 17.1 17.1004 13.4735 17.1004 9.00002C17.1004 4.52652 13.4739 0.900024 9.00039 0.900024ZM1.90039 9.00002C1.90039 5.0788 5.07917 1.90002 9.00039 1.90002C12.9216 1.90002 16.1004 5.0788 16.1004 9.00002C16.1004 12.9212 12.9216 16.1 9.00039 16.1C5.07917 16.1 1.90039 12.9212 1.90039 9.00002ZM6.20039 5.70002C5.48242 5.70002 4.90039 6.28205 4.90039 7.00002C4.90039 7.71799 5.48242 8.30002 6.20039 8.30002C6.91836 8.30002 7.50039 7.71799 7.50039 7.00002C7.50039 6.28205 6.91836 5.70002 6.20039 5.70002ZM11.8004 5.70002C11.0824 5.70002 10.5004 6.28205 10.5004 7.00002C10.5004 7.71799 11.0824 8.30002 11.8004 8.30002C12.5184 8.30002 13.1004 7.71799 13.1004 7.00002C13.1004 6.28205 12.5184 5.70002 11.8004 5.70002ZM5.48298 10.2783C5.30529 10.0117 4.94519 9.93972 4.67866 10.1174C4.41214 10.2951 4.34011 10.6552 4.5178 10.9217C4.54436 10.9616 4.57262 11.0047 4.60298 11.0511L4.60447 11.0533C4.86041 11.4441 5.25275 12.0432 5.87391 12.5495C6.58933 13.1328 7.58504 13.58 9.00039 13.58C10.4157 13.58 11.4114 13.1328 12.1269 12.5495C12.748 12.0432 13.1404 11.4441 13.3963 11.0534L13.3963 11.0534L13.3978 11.0511C13.4282 11.0047 13.4564 10.9616 13.483 10.9217C13.6607 10.6552 13.5886 10.2951 13.3221 10.1174C13.0556 9.93972 12.6955 10.0117 12.5178 10.2783C12.488 10.323 12.4574 10.3695 12.4267 10.4161C12.1669 10.8108 11.868 11.2639 11.3939 11.6505C10.8827 12.0672 10.145 12.42 9.00039 12.42C7.85573 12.42 7.11811 12.0672 6.60687 11.6505C6.13302 11.2642 5.83419 10.8113 5.57447 10.4167L5.57352 10.4153L5.5734 10.4151C5.54282 10.3686 5.5127 10.3229 5.48298 10.2783Z" fill="#14C393"/>
</svg>

<svg width="18" height="18" fill="none" xmlns="http://www.w3.org/2000/svg"><path fill-rule="evenodd" clip-rule="evenodd" d="M9 .9a8.1 8.1 0 1 0 0 16.2A8.1 8.1 0 0 0 9 .9ZM1.9 9a7.1 7.1 0 1 1 14.2 0A7.1 7.1 0 0 1 1.9 9Zm4.3-3.3a1.3 1.3 0 1 0 0 2.6 1.3 1.3 0 0 0 0-2.6Zm5.6 0a1.3 1.3 0 1 0 0 2.6 1.3 1.3 0 0 0 0-2.6Zm-6.317 4.578a.58.58 0 1 0-.965.644l.085.13.001.001c.256.391.649.99 1.27 1.496.715.584 1.711 1.031 3.126 1.031 1.416 0 2.411-.447 3.127-1.03.621-.507 1.013-1.106 1.27-1.497v-.002l.086-.13a.58.58 0 0 0-.965-.643l-.091.138c-.26.395-.559.848-1.033 1.234-.511.417-1.249.77-2.394.77-1.144 0-1.882-.353-2.393-.77-.474-.386-.773-.839-1.033-1.233v-.002l-.091-.137Z" fill="#14C393"/></svg>
